final/kumquats.svg

<?xml version="1.0" encoding="iso-8859-1"?>
<!-- Generator: Adobe Illustrator 10, SVG Export Plug-In . SVG Version: 3.0.0 Build 76)  -->
<!DOCTYPE svg PUBLIC "-//W3C//DTD SVG 1.0//EN"    "http://www.w3.org/TR/2001/REC-SVG-20010904/DTD/svg10.dtd" [
	<!ENTITY ns_flows "http://ns.adobe.com/Flows/1.0/">
	<!ENTITY ns_svg "http://www.w3.org/2000/svg">
	<!ENTITY ns_xlink "http://www.w3.org/1999/xlink">
]>
<svg  xmlns="&ns_svg;" xmlns:xlink="&ns_xlink;" xmlns:a="http://ns.adobe.com/AdobeSVGViewerExtensions/3.0/"
	 width="531.265" height="633.974" viewBox="0 0 531.265 633.974"
	 style="overflow:visible;enable-background:new 0 0 531.265 633.974" xml:space="preserve">
	<style type="text/css">
	<![CDATA[
		@font-face{font-family:'Times-Roman';src:url(72E0574B.cef)}
	]]>
	</style>
	<g id="Layer_1">
		<text transform="matrix(1 0 0 1 0 571.0107)"><tspan x="0" y="0" style="font-family:'Times-Roman'; font-size:12;">&quot;Kumquats&quot;</tspan><tspan x="0" y="14.5" style="font-family:'Times-Roman'; font-size:12;">Copyright </tspan><tspan x="51.668" y="14.5" style="font-family:'Times-Roman'; font-size:12;">&#xA9;</tspan><tspan x="60.785" y="14.5" style="font-family:'Times-Roman'; font-size:12;"> 2000 Rob Myers http://www.robmyers.org/ .</tspan><tspan x="0" y="29" style="font-family:'Times-Roman'; font-size:12;">This work is licensed under the Creative Commons Attribution-ShareAlike License.</tspan><tspan x="0" y="43.5" style="font-family:'Times-Roman'; font-size:12;">To view a copy of this license, visit http://creativecommons.org/licenses/by-sa/1.0/ </tspan><tspan x="0" y="58" style="font-family:'Times-Roman'; font-size:12;">or send a letter to Creative Commons, 559 Nathan Abbott Way, Stanford, California 94305, USA.</tspan></text>
		<g>
			<path style="fill:#DAE3E5;stroke:#DAE3E5;stroke-width:7.992;" d="M274.56,269.399c17.425,29.016,30.169,49.896,39.528,61.488
				c13.896,17.353,33.624,37.08,58.032,56.809c24.336,19.8,48.744,36,74.304,48.815c16.272,9.288,40.608,19.729,73.152,31.32
				l-11.592,9.288c-60.408-20.88-59.256-19.729-81.288-30.168c-27.864-12.816-51.12-29.016-70.849-45.288
				c-16.271-13.968-31.319-26.712-42.983-40.608c10.512,17.353,25.56,35.929,44.136,54.504
				c22.104,24.408,42.984,42.984,66.168,59.257c15.12,11.592,38.376,24.407,68.544,41.76l-12.815,6.983
				c-56.881-29.016-55.729-27.863-76.608-41.76c-25.56-16.271-46.44-34.848-63.864-53.424
				c-22.032-24.408-38.304-46.439-49.896-69.696c-1.152-2.304-2.376-4.607-3.528-6.912c8.136,20.881,18.576,42.912,32.544,67.32
				c16.272,27.864,33.696,52.2,52.272,73.152c11.592,13.896,31.319,31.319,56.88,54.576l-12.816,4.607
				c-49.896-40.607-49.896-40.607-66.168-58.032c-20.88-20.88-37.152-44.136-49.896-66.168
				c-16.272-27.863-27.864-53.424-33.696-77.832c-2.808-12.096-5.544-30.096-7.776-52.92
				c-17.279-28.944-30.096-49.032-39.888-61.344c-14.185-17.712-33.192-36.648-57.6-56.448
				c-25.128-20.448-49.393-36.648-74.809-49.392c-16.128-8.712-40.319-18.72-72.792-31.104l11.088-8.496
				c60.769,20.376,59.977,19.728,82.225,29.952c26.783,12.96,50.256,28.512,69.912,44.496c17.063,13.896,31.392,27.504,43.487,41.4
				c-11.016-17.28-25.56-36-44.352-54.72c-22.032-24.408-42.912-42.984-66.168-59.256C92.4,79.967,69.144,67.151,38.976,49.799
				l12.744-6.984c56.88,29.016,55.729,27.864,76.681,41.76c25.487,16.272,46.439,34.848,63.792,53.424
				c22.104,24.408,38.376,46.44,49.968,69.696c0.936,1.944,1.943,4.032,3.023,6.336c-7.128-20.088-17.567-42.552-31.896-67.248
				c-16.344-28.08-33.264-51.768-52.56-72.72c-12.024-13.824-31.104-31.752-57.097-54.792l13.393-4.032
				c49.607,40.536,49.104,39.672,66.384,57.096c20.448,21.6,36.863,44.424,49.607,66.384c16.272,28.008,27.217,53.568,33.769,78.336
				C268.008,222.455,274.56,269.399,274.56,269.399z"/>
			<path style="fill:#B3DE69;stroke:#435607;stroke-width:7.992;" d="M278.16,258.599c17.424,29.016,30.168,49.896,39.527,61.488
				c13.896,17.353,33.625,37.08,58.032,56.809c24.336,19.8,48.744,36,74.305,48.815c16.271,9.288,40.607,19.729,73.151,31.32
				l-11.592,9.288c-60.408-20.88-59.256-19.729-81.288-30.168c-27.864-12.816-51.12-29.017-70.848-45.288
				c-16.272-13.968-31.32-26.712-42.984-40.608c10.512,17.353,25.561,35.928,44.136,54.504
				c22.104,24.408,42.984,42.984,66.168,59.256c15.12,11.593,38.377,24.408,68.545,41.761l-12.816,6.983
				c-56.88-29.016-55.729-27.863-76.608-41.76c-25.56-16.272-46.439-34.848-63.863-53.424
				c-22.032-24.408-38.305-46.44-49.896-69.696c-1.152-2.304-2.376-4.607-3.528-6.912c8.137,20.88,18.576,42.912,32.544,67.32
				c16.272,27.864,33.696,52.2,52.272,73.152c11.592,13.896,31.32,31.319,56.88,54.575l-12.815,4.608
				c-49.896-40.608-49.896-40.608-66.168-58.032c-20.881-20.88-37.152-44.136-49.896-66.168
				c-16.272-27.864-27.864-53.424-33.696-77.832c-2.808-12.024-5.544-30.096-7.775-52.92c-17.28-28.944-30.097-49.032-39.889-61.344
				c-14.184-17.712-33.191-36.648-57.6-56.448c-25.128-20.448-49.392-36.648-74.808-49.392c-16.129-8.712-40.32-18.72-72.792-31.104
				l11.088-8.496c60.768,20.376,59.976,19.728,82.224,29.952c26.784,12.96,50.256,28.512,69.912,44.496
				c17.063,13.896,31.392,27.504,43.488,41.4c-11.017-17.28-25.561-36-44.353-54.72c-22.032-24.408-42.912-42.984-66.168-59.256
				C96,69.167,72.744,56.351,42.576,38.999l12.744-6.984c56.88,29.016,55.728,27.864,76.68,41.76
				c25.488,16.272,46.44,34.848,63.792,53.424c22.104,24.408,38.376,46.44,49.968,69.696c0.937,1.944,1.944,4.032,3.024,6.336
				c-7.128-20.088-17.568-42.552-31.896-67.248c-16.344-28.08-33.264-51.768-52.56-72.72
				c-12.024-13.824-31.104-31.752-57.096-54.792l13.392-4.032c49.608,40.536,49.104,39.672,66.384,57.096
				c20.448,21.6,36.864,44.424,49.608,66.384c16.271,28.008,27.216,53.568,33.768,78.336
				C271.608,211.655,278.16,258.599,278.16,258.599z"/>
		</g>
	</g>
</svg>

<?xml version="1.0" encoding="UTF-8" standalone="no"?>
<!-- Generator: Adobe Illustrator 10, SVG Export Plug-In . SVG Version: 3.0.0 Build 76)  -->
<svg
   xmlns:dc="http://purl.org/dc/elements/1.1/"
   xmlns:cc="http://creativecommons.org/ns#"
   xmlns:rdf="http://www.w3.org/1999/02/22-rdf-syntax-ns#"
   xmlns:svg="http://www.w3.org/2000/svg"
   xmlns="http://www.w3.org/2000/svg"
   xmlns:sodipodi="http://sodipodi.sourceforge.net/DTD/sodipodi-0.dtd"
   xmlns:inkscape="http://www.inkscape.org/namespaces/inkscape"
   width="519.91101"
   height="554.97498"
   viewBox="0 0 531.265 633.974"
   style="overflow:visible"
   xml:space="preserve"
   id="svg2667"
   sodipodi:version="0.32"
   inkscape:version="0.46"
   sodipodi:docname="kumquats.svg"
   inkscape:output_extension="org.inkscape.output.svg.inkscape"
   version="1.0"><metadata
   id="metadata2697"><rdf:RDF><cc:Work
       rdf:about=""><dc:format>image/svg+xml</dc:format><dc:type
         rdf:resource="http://purl.org/dc/dcmitype/StillImage" /></cc:Work></rdf:RDF></metadata><defs
   id="defs2695"><inkscape:perspective
   sodipodi:type="inkscape:persp3d"
   inkscape:vp_x="0 : 316.987 : 1"
   inkscape:vp_y="0 : 1000 : 0"
   inkscape:vp_z="531.26501 : 316.987 : 1"
   inkscape:persp3d-origin="265.63251 : 211.32467 : 1"
   id="perspective2699" />
		
		
	</defs><sodipodi:namedview
   inkscape:window-height="670"
   inkscape:window-width="640"
   inkscape:pageshadow="2"
   inkscape:pageopacity="0.0"
   guidetolerance="10.0"
   gridtolerance="10.0"
   objecttolerance="10.0"
   borderopacity="1.0"
   bordercolor="#666666"
   pagecolor="#ffffff"
   id="base"
   showgrid="false"
   inkscape:zoom="0.72873651"
   inkscape:cx="265.63251"
   inkscape:cy="316.987"
   inkscape:window-x="0"
   inkscape:window-y="64"
   inkscape:current-layer="svg2667" />
	<style
   type="text/css"
   id="style2669">
	
		@font-face{font-family:'Times-Roman';src:url(72E0574B.cef)}
	
	</style>
	
<g
   transform="matrix(1.142347,0,0,1.142347,-39.620332,-0.5060861)"
   style="overflow:visible"
   id="g2688">
			<path
   id="path2690"
   d="M 274.56,269.399 C 291.985,298.415 304.729,319.295 314.088,330.887 C 327.984,348.24 347.712,367.967 372.12,387.696 C 396.456,407.496 420.864,423.696 446.424,436.511 C 462.696,445.799 487.032,456.24 519.576,467.831 L 507.984,477.119 C 447.576,456.239 448.728,457.39 426.696,446.951 C 398.832,434.135 375.576,417.935 355.847,401.663 C 339.576,387.695 324.528,374.951 312.864,361.055 C 323.376,378.408 338.424,396.984 357,415.559 C 379.104,439.967 399.984,458.543 423.168,474.816 C 438.288,486.408 461.544,499.223 491.712,516.576 L 478.897,523.559 C 422.016,494.543 423.168,495.696 402.289,481.799 C 376.729,465.528 355.849,446.951 338.425,428.375 C 316.393,403.967 300.121,381.936 288.529,358.679 C 287.377,356.375 286.153,354.072 285.001,351.767 C 293.137,372.648 303.577,394.679 317.545,419.087 C 333.817,446.951 351.241,471.287 369.817,492.239 C 381.409,506.135 401.136,523.558 426.697,546.815 L 413.881,551.422 C 363.985,510.815 363.985,510.815 347.713,493.39 C 326.833,472.51 310.561,449.254 297.817,427.222 C 281.545,399.359 269.953,373.798 264.121,349.39 C 261.313,337.294 258.577,319.294 256.345,296.47 C 239.066,267.526 226.249,247.438 216.457,235.126 C 202.272,217.414 183.265,198.478 158.857,178.678 C 133.729,158.23 109.464,142.03 84.048,129.286 C 67.92,120.574 43.729,110.566 11.256,98.182 L 22.344,89.686 C 83.113,110.062 82.321,109.414 104.569,119.638 C 131.352,132.598 154.825,148.15 174.481,164.134 C 191.544,178.03 205.873,191.638 217.968,205.534 C 206.952,188.254 192.408,169.534 173.616,150.814 C 151.584,126.406 130.704,107.83 107.448,91.558 C 92.4,79.967 69.144,67.151 38.976,49.799 L 51.72,42.815 C 108.6,71.831 107.449,70.679 128.401,84.575 C 153.888,100.847 174.84,119.423 192.193,137.999 C 214.297,162.407 230.569,184.439 242.161,207.695 C 243.097,209.639 244.104,211.727 245.184,214.031 C 238.056,193.943 227.617,171.479 213.288,146.783 C 196.944,118.703 180.024,95.015 160.728,74.063 C 148.704,60.239 129.624,42.311 103.631,19.271 L 117.024,15.239 C 166.631,55.775 166.128,54.911 183.408,72.335 C 203.856,93.935 220.271,116.759 233.015,138.719 C 249.287,166.727 260.232,192.287 266.784,217.055 C 268.008,222.455 274.56,269.399 274.56,269.399 z"
   style="fill:#dae3e5;stroke:#dae3e5;stroke-width:7.9920001" />
			<path
   id="path2692"
   d="M 278.16,258.599 C 295.584,287.615 308.328,308.495 317.687,320.087 C 331.583,337.44 351.312,357.167 375.719,376.896 C 400.055,396.696 424.463,412.896 450.024,425.711 C 466.295,434.999 490.631,445.44 523.175,457.031 L 511.583,466.319 C 451.175,445.439 452.327,446.59 430.295,436.151 C 402.431,423.335 379.175,407.134 359.447,390.863 C 343.175,376.895 328.127,364.151 316.463,350.255 C 326.975,367.608 342.024,386.183 360.599,404.759 C 382.703,429.167 403.583,447.743 426.767,464.015 C 441.887,475.608 465.144,488.423 495.312,505.776 L 482.496,512.759 C 425.616,483.743 426.767,484.896 405.888,470.999 C 380.328,454.727 359.449,436.151 342.025,417.575 C 319.993,393.167 303.72,371.135 292.129,347.879 C 290.977,345.575 289.753,343.272 288.601,340.967 C 296.738,361.847 307.177,383.879 321.145,408.287 C 337.417,436.151 354.841,460.487 373.417,481.439 C 385.009,495.335 404.737,512.758 430.297,536.014 L 417.482,540.622 C 367.586,500.014 367.586,500.014 351.314,482.59 C 330.433,461.71 314.162,438.454 301.418,416.422 C 285.146,388.558 273.554,362.998 267.722,338.59 C 264.914,326.566 262.178,308.494 259.947,285.67 C 242.667,256.726 229.85,236.638 220.058,224.326 C 205.874,206.614 186.867,187.678 162.458,167.878 C 137.33,147.43 113.066,131.23 87.65,118.486 C 71.521,109.774 47.33,99.766 14.858,87.382 L 25.946,78.886 C 86.714,99.262 85.922,98.614 108.17,108.838 C 134.954,121.798 158.426,137.35 178.082,153.334 C 195.145,167.23 209.474,180.838 221.57,194.734 C 210.553,177.454 196.009,158.734 177.217,140.014 C 155.185,115.606 134.305,97.03 111.049,80.758 C 96,69.167 72.744,56.351 42.576,38.999 L 55.32,32.015 C 112.2,61.031 111.048,59.879 132,73.775 C 157.488,90.047 178.44,108.623 195.792,127.199 C 217.896,151.607 234.168,173.639 245.76,196.895 C 246.697,198.839 247.704,200.927 248.784,203.231 C 241.656,183.143 231.216,160.679 216.888,135.983 C 200.544,107.903 183.624,84.215 164.328,63.263 C 152.304,49.439 133.224,31.511 107.232,8.471 L 120.624,4.439 C 170.232,44.975 169.728,44.111 187.008,61.535 C 207.456,83.135 223.872,105.959 236.616,127.919 C 252.887,155.927 263.832,181.487 270.384,206.255 C 271.608,211.655 278.16,258.599 278.16,258.599 z"
   style="fill:#b3de69;stroke:#435607;stroke-width:7.9920001" />
		</g></svg>
